docs/.gitbook/assets/icon-dna-16@dark.svg

<svg width="32" height="32" viewBox="0 0 16 16" fill="none" xmlns="http://www.w3.org/2000/svg">
<rect x="0" y="0" width="16" height="16" fill="#181c1f"/>
<path fill-rule="evenodd" clip-rule="evenodd" d="M12.25 1C12.6642 1.00002 13 1.33582 13 1.75003L12.9999 3.5H14.25C14.6642 3.5 15 3.83579 15 4.25C15 4.66421 14.6642 5 14.25 5H12.9999L12.9999 5.48069C12.9998 6.81888 12.4353 8.09497 11.4451 8.99516L7.25452 12.8049C6.94803 13.0836 6.47369 13.061 6.19505 12.7545C5.91642 12.448 5.939 11.9737 6.24548 11.6951L8.5444 9.60506L6.34446 7.40512L5.56391 8.11473C4.88643 8.73065 4.50018 9.60376 4.50014 10.5194L4.5 14.25C4.49998 14.6642 4.16418 15 3.74997 15C3.33576 15 2.99998 14.6642 3 14.25L3.00007 12.5H1.75C1.33579 12.5 1 12.1642 1 11.75C1 11.3358 1.33579 11 1.75 11H3.00012L3.00014 10.5193C3.00019 9.18112 3.56471 7.90503 4.55488 7.00484L8.74548 3.19505C9.05197 2.91642 9.52631 2.939 9.80494 3.24548C10.0836 3.55197 10.061 4.02631 9.75452 4.30495L7.4556 6.39494L9.65554 8.59488L10.4361 7.88527C11.1136 7.26935 11.4998 6.39624 11.4999 5.48063L11.5 1.74997C11.5 1.33576 11.8358 0.999984 12.25 1Z" fill="#fff"/>
</svg>

<svg xmlns="http://www.w3.org/2000/svg" width="32" height="32" fill="none" viewBox="0 0 16 16"><path fill="#181c1f" d="M0 0h16v16H0z"/><path fill="#fff" fill-rule="evenodd" d="M12.25 1a.75.75 0 0 1 .75.75V3.5h1.25a.75.75 0 0 1 0 1.5H13v.48a4.75 4.75 0 0 1-1.555 3.515l-4.19 3.81a.75.75 0 1 1-1.01-1.11l2.3-2.09-2.2-2.2-.781.71A3.25 3.25 0 0 0 4.5 10.519v3.731a.75.75 0 0 1-1.5 0V12.5H1.75a.75.75 0 0 1 0-1.5H3v-.48a4.75 4.75 0 0 1 1.555-3.515l4.19-3.81a.75.75 0 0 1 1.01 1.11l-2.3 2.09 2.2 2.2.781-.71A3.25 3.25 0 0 0 11.5 5.481V1.75a.75.75 0 0 1 .75-.75" clip-rule="evenodd"/></svg>
